src/lib/packages/icons/src/assets/line/folder-edit.svg

<svg width="24" height="24" viewBox="0 0 24 24" fill="none" xmlns="http://www.w3.org/2000/svg">
<path d="M18 6.25H13.311L10.531 3.47C10.39 3.329 10.2 3.25 10.001 3.25H6.00098C3.58298 3.25 2.25098 4.582 2.25098 7V17C2.25098 19.418 3.58298 20.75 6.00098 20.75H18.001C20.419 20.75 21.751 19.418 21.751 17V10C21.75 7.582 20.418 6.25 18 6.25ZM20.25 17C20.25 18.577 19.577 19.25 18 19.25H6C4.423 19.25 3.75 18.577 3.75 17V7C3.75 5.423 4.423 4.75 6 4.75H9.68896L12.469 7.53C12.61 7.671 12.8 7.75 12.999 7.75H17.999C19.576 7.75 20.249 8.423 20.249 10V17H20.25ZM15.2791 9.23001C14.9691 8.92001 14.5581 8.75 14.1211 8.75C14.1201 8.75 14.1189 8.75 14.1189 8.75C13.6809 8.75 13.268 8.922 12.96 9.233L7.46899 14.749C7.32799 14.889 7.25 15.08 7.25 15.278V17.5C7.25 17.914 7.586 18.25 8 18.25H10.2229C10.4209 18.25 10.612 18.171 10.752 18.031L16.2681 12.54C16.5791 12.231 16.749 11.819 16.75 11.381C16.75 10.943 16.58 10.53 16.27 10.22L15.2791 9.23001ZM14.1211 10.25C14.1471 10.25 14.185 10.257 14.219 10.291L15.209 11.281C15.243 11.315 15.25 11.354 15.25 11.38C15.25 11.406 15.243 11.444 15.209 11.478L14.573 12.111L13.3889 10.927L14.022 10.291C14.057 10.257 14.0951 10.25 14.1211 10.25ZM9.91309 16.75H8.75V15.587L12.3311 11.99L13.51 13.169L9.91309 16.75Z" fill="currentColor"/>
</svg>

<svg xmlns="http://www.w3.org/2000/svg" width="24" height="24" fill="none"><path fill="currentColor" d="M18 6.25h-4.689l-2.78-2.78a.749.749 0 0 0-.53-.22h-4c-2.418 0-3.75 1.332-3.75 3.75v10c0 2.418 1.332 3.75 3.75 3.75h12c2.418 0 3.75-1.332 3.75-3.75v-7C21.75 7.582 20.418 6.25 18 6.25ZM20.25 17c0 1.577-.673 2.25-2.25 2.25H6c-1.577 0-2.25-.673-2.25-2.25V7c0-1.577.673-2.25 2.25-2.25h3.689l2.78 2.78c.141.141.331.22.53.22h5c1.577 0 2.25.673 2.25 2.25v7h.001Zm-4.97-7.77c-.31-.31-.722-.48-1.159-.48h-.002c-.438 0-.851.172-1.159.483l-5.491 5.516a.745.745 0 0 0-.219.529V17.5c0 .414.336.75.75.75h2.223a.75.75 0 0 0 .529-.219l5.516-5.491c.311-.309.481-.721.482-1.159 0-.438-.17-.851-.48-1.161l-.99-.99Zm-1.159 1.02c.026 0 .064.007.098.041l.99.99a.138.138 0 0 1 0 .197l-.636.633-1.184-1.184.633-.636a.14.14 0 0 1 .1-.041Zm-4.208 6.5H8.75v-1.163l3.581-3.597 1.179 1.179-3.597 3.581Z"/></svg>
